img/icones/github-icon.svg

<svg width="40" height="40" viewBox="0 0 40 40" fill="none" xmlns="http://www.w3.org/2000/svg">
<g clip-path="url(#clip0_17_4)">
<path d="M31.6667 0H8.33333C3.73166 0 0 3.73167 0 8.33333V31.6667C0 36.2683 3.73166 40 8.33333 40H31.6667C36.27 40 40 36.2683 40 31.6667V8.33333C40 3.73167 36.27 0 31.6667 0ZM24.2233 32.65C23.5483 32.78 23.3333 32.365 23.3333 32.01V28.3517C23.3333 27.1067 22.8967 26.2967 22.4167 25.8833C25.3867 25.5533 28.5067 24.425 28.5067 19.305C28.5067 17.8483 27.9867 16.6583 27.135 15.7267C27.2717 15.39 27.7283 14.0333 27.0033 12.1983C27.0033 12.1983 25.885 11.84 23.34 13.565C22.2733 13.265 21.1333 13.12 20 13.1133C18.8667 13.1183 17.7267 13.265 16.6617 13.5617C14.115 11.8367 12.995 12.195 12.995 12.195C12.2717 14.0317 12.7283 15.3867 12.8667 15.725C12.0133 16.6583 11.4933 17.8467 11.4933 19.3033C11.4933 24.41 14.605 25.555 17.5683 25.8933C17.1867 26.2267 16.8417 26.8133 16.7217 27.6767C15.96 28.0167 14.0317 28.605 12.8417 26.5667C12.8417 26.5667 12.1367 25.2867 10.7967 25.1917C10.7967 25.1917 9.49667 25.175 10.705 26.0033C10.705 26.0033 11.58 26.4133 12.1867 27.9533C12.1867 27.9533 12.9583 30.3333 16.6667 29.5267V32.0083C16.6667 32.36 16.4517 32.7733 15.7867 32.65C10.4867 30.8883 6.66666 25.89 6.66666 20C6.66666 12.635 12.6367 6.66667 20 6.66667C27.3633 6.66667 33.3333 12.635 33.3333 20C33.3333 25.8883 29.5183 30.885 24.2233 32.65Z" fill="black"/>
</g>
<defs>
<clipPath id="clip0_17_4">
<rect width="40" height="40" fill="white"/>
</clipPath>
</defs>
</svg>

<svg width="40" height="40" fill="none" xmlns="http://www.w3.org/2000/svg"><g clip-path="url(#a)"><path d="M31.667 0H8.333A8.334 8.334 0 0 0 0 8.333v23.334A8.334 8.334 0 0 0 8.333 40h23.334A8.333 8.333 0 0 0 40 31.667V8.333A8.333 8.333 0 0 0 31.667 0Zm-7.444 32.65c-.675.13-.89-.285-.89-.64v-3.658c0-1.245-.436-2.055-.916-2.469 2.97-.33 6.09-1.458 6.09-6.578 0-1.457-.52-2.647-1.372-3.578.137-.337.593-1.694-.132-3.529 0 0-1.118-.358-3.663 1.367a12.695 12.695 0 0 0-3.34-.452 12.738 12.738 0 0 0-3.338.449c-2.547-1.725-3.667-1.367-3.667-1.367-.723 1.837-.267 3.192-.128 3.53-.854.933-1.374 2.122-1.374 3.578 0 5.107 3.112 6.252 6.075 6.59-.381.334-.726.92-.846 1.784-.762.34-2.69.928-3.88-1.11 0 0-.705-1.28-2.045-1.375 0 0-1.3-.017-.092.811 0 0 .875.41 1.482 1.95 0 0 .771 2.38 4.48 1.574v2.481c0 .352-.215.765-.88.642-5.3-1.762-9.12-6.76-9.12-12.65 0-7.365 5.97-13.333 13.333-13.333S33.333 12.635 33.333 20c0 5.888-3.815 10.885-9.11 12.65Z" fill="#000"/></g><defs><clipPath id="a"><path fill="#fff" d="M0 0h40v40H0z"/></clipPath></defs></svg>
